X: 2
T: Rosor Och Blad
R: waltz
M: 3/4
L: 1/8
K: Emin
|:B2|E^DEF GA|B2^D2B2|AGFG AB|c2B2B2|
GFE^D EF|G2A2G2|FDBD FG|E4:|
z2|B^dfB df|ag f2g2|e4 ed|B^dfB df|agf2g2|
e3 FGA|B2e2 ed|B3 gag|f2 B^dfg|e3 FGA|
B2e2ed|B3 gag|f2 B^dfg|e4z2||

